X:1
T: The Caledonian Society of London
C:
R:Strathspey
Q: 128
K:A
M:4/4
L:1/16
|:a2|e3A f3A e3A ca3|e3A c3A ce3 e3a|f3B d3B f3B d3e|f3B d3B f4 fa3|
e3A f3A e3A ca3|e3A c3A ce3 e3c|d3f d3f c3e c3e|B3d c3e d3f ((3e2f2g2) |
a4 a3f ((3e2f2g2) a3f|e3A c3A ce3 ((3e2f2g2) |a4 a3f e3c a3e|f3B d3B f4 f3g|
a4 a3f ((3e2f2g2) a3f|e2A2 A4 ce3 e3c|d3f d3f c3e c3e|B3d c3e d3f f2:|
